storage/app/icons/phosphoricons/duotone/fire-extinguisher-duotone.svg

<svg xmlns="http://www.w3.org/2000/svg" fill="currentColor" viewBox="0 0 256 256"><path d="M176 168v64a8 8 0 0 1-8 8h-64a8 8 0 0 1-8-8v-64Z" opacity=".2"/><path d="m218.3 48.34-60.68-18.2 30-15a8 8 0 0 0-7.2-14.29L134 24.05a80.08 80.08 0 0 0-78 80V208a8 8 0 0 0 16 0v-32h16v56a16 16 0 0 0 16 16h64a16 16 0 0 0 16-16V104a48.07 48.07 0 0 0-40-47.32V42.75l69.7 20.91a8 8 0 1 0 4.6-15.32M88 104v56H72v-56a64.07 64.07 0 0 1 56-63.48v16.16A48.07 48.07 0 0 0 88 104m80 128h-64v-56h64Zm0-128v56h-64v-56a32 32 0 0 1 64 0"/></svg>

<svg xmlns="http://www.w3.org/2000/svg" viewBox="0 0 256 256" fill="currentColor"><path d="M176,168v64a8,8,0,0,1-8,8H104a8,8,0,0,1-8-8V168Z" opacity="0.2"/><path d="M218.3,48.34l-60.68-18.2,30-15A8,8,0,0,0,180.42.85L134,24.05a80.08,80.08,0,0,0-78,80V208a8,8,0,0,0,16,0V176H88v56a16,16,0,0,0,16,16h64a16,16,0,0,0,16-16V104a48.07,48.07,0,0,0-40-47.32V42.75l69.7,20.91a8,8,0,1,0,4.6-15.32ZM88,104v56H72V104a64.07,64.07,0,0,1,56-63.48V56.68A48.07,48.07,0,0,0,88,104Zm80,128H104V176h64Zm0-128v56H104V104a32,32,0,0,1,64,0Z"/></svg>
